poi/svg/2311.svg

<?xml version="1.0" encoding="UTF-8" standalone="no"?>
<svg
   xmlns:dc="http://purl.org/dc/elements/1.1/"
   xmlns:cc="http://creativecommons.org/ns#"
   xmlns:rdf="http://www.w3.org/1999/02/22-rdf-syntax-ns#"
   xmlns:svg="http://www.w3.org/2000/svg"
   xmlns="http://www.w3.org/2000/svg"
   xmlns:sodipodi="http://sodipodi.sourceforge.net/DTD/sodipodi-0.dtd"
   xmlns:inkscape="http://www.inkscape.org/namespaces/inkscape"
   inkscape:version="1.0 (4035a4fb49, 2020-05-01)"
   sodipodi:docname="2311.svg"
   id="svg20"
   version="1.2"
   viewBox="0 0 42.519639 42.519639"
   height="14.999999mm"
   width="14.999999mm">
  <metadata
     id="metadata24">
    <rdf:RDF>
      <cc:Work
         rdf:about="">
        <dc:format>image/svg+xml</dc:format>
        <dc:type
           rdf:resource="http://purl.org/dc/dcmitype/StillImage" />
        <dc:title>Qt SVG Document</dc:title>
      </cc:Work>
    </rdf:RDF>
  </metadata>
  <sodipodi:namedview
     inkscape:current-layer="svg20"
     inkscape:window-maximized="0"
     inkscape:window-y="0"
     inkscape:window-x="0"
     inkscape:cy="28.346482"
     inkscape:cx="28.346482"
     inkscape:zoom="5.8410537"
     showgrid="false"
     id="namedview22"
     inkscape:window-height="480"
     inkscape:window-width="1034"
     inkscape:pageshadow="2"
     inkscape:pageopacity="0"
     guidetolerance="10"
     gridtolerance="10"
     objecttolerance="10"
     borderopacity="1"
     bordercolor="#666666"
     pagecolor="#ffffff" />
  <title
     id="title2">Qt SVG Document</title>
  <desc
     id="desc4">Generated with Qt</desc>
  <defs
     id="defs6" />
  <g
     transform="translate(5.25984,5.25984)"
     id="g18"
     stroke-linejoin="bevel"
     stroke-linecap="square"
     fill-rule="evenodd"
     stroke-width="1"
     stroke="#000000"
     fill="none">
    <g
       id="g10"
       font-style="normal"
       font-weight="400"
       font-size="7.8px"
       font-family="'MS Shell Dlg 2'"
       stroke="none"
       fill-opacity="1"
       fill="#ef4b65">
      <path
         id="path8"
         d="M 37.2598,16 C 37.2598,27.7415 27.7415,37.2598 16,37.2598 4.25851,37.2598 -5.25984,27.7415 -5.25984,16 -5.25984,4.25851 4.25851,-5.25984 16,-5.25984 27.7415,-5.25984 37.2598,4.25851 37.2598,16"
         fill-rule="evenodd"
         vector-effect="non-scaling-stroke" />
    </g>
    <g
       id="g14"
       font-style="normal"
       font-weight="400"
       font-size="7.8px"
       font-family="'MS Shell Dlg 2'"
       transform="translate(16,13.1654)"
       stroke="none"
       fill-opacity="0.94902"
       fill="#ffffff">
      <path
         id="path12"
         d="m 2.7207,2.80811 7.9995,7.09668 c -0.084,0.15401 -0.1889,0.30091 -0.3149,0.44091 -0.084,0.14 -0.189,0.2974 -0.315,0.4724 -0.12594,0.175 -0.27292,0.3465 -0.44089,0.5144 -0.20996,0.196 -0.39192,0.3605 -0.54589,0.4934 -0.15398,0.133 -0.30795,0.2415 -0.46192,0.3255 -0.13997,0.1119 -0.29394,0.1959 -0.46191,0.2519 L 1.08301,4.4458 1.6499,3.8999 0.74707,2.89209 C 0.649089,2.99007 0.544108,3.04606 0.432129,3.06006 0.32015,3.07406 0.208171,3.08105 0.0961914,3.08105 -0.0437826,3.08105 -0.159261,3.07406 -0.250244,3.06006 -0.341227,3.04606 -0.456706,2.99007 -0.59668,2.89209 L -1.49951,3.8999 -0.974609,4.4458 -8.0293,12.4033 c -0.18196,-0.056 -0.34293,-0.14 -0.48291,-0.2519 -0.13997,-0.084 -0.29744,-0.1925 -0.47241,-0.3255 -0.17497,-0.1329 -0.34643,-0.2974 -0.5144,-0.4934 -0.30795,-0.3779 -0.56688,-0.7068 -0.77688,-0.9868 -0.112,-0.14 -0.2099,-0.2869 -0.2939,-0.44091 l 7.99949,-7.09668 0.5039,0.5249 1.00782,-0.86084 C -1.18457,2.19222 -1.24756,1.97526 -1.24756,1.82129 c 0,-0.25195 0.06299,-0.49691 0.18897,-0.73486 L -2.06641,0.183594 -2.57031,0.750488 -10.5698,-6.34619 c 0.084,-0.13998 0.1819,-0.27995 0.2939,-0.41992 0.21,-0.29395 0.46893,-0.62289 0.77688,-0.98682 0.16797,-0.18197 0.33943,-0.34294 0.5144,-0.48291 0.17497,-0.13997 0.33244,-0.25195 0.47241,-0.33594 0.13998,-0.12597 0.30095,-0.21696 0.48291,-0.27295 l 7.054691,7.957523 -0.524901,0.566894 0.90283,0.986817 C -0.456706,0.58252 -0.341227,0.533529 -0.250244,0.519531 -0.159261,0.505534 -0.0437826,0.498535 0.0961914,0.498535 0.208171,0.498535 0.32015,0.505534 0.432129,0.519531 0.544108,0.533529 0.649089,0.58252 0.74707,0.666504 L 1.6499,-0.320313 1.08301,-0.887207 8.17969,-8.84473 c 0.16797,0.05599 0.32194,0.14698 0.46191,0.27295 0.15397,0.08399 0.30794,0.19597 0.46192,0.33594 0.15397,0.13997 0.33593,0.30094 0.54589,0.48291 0.16797,0.16797 0.31495,0.33594 0.44089,0.50391 0.126,0.16797 0.231,0.32894 0.315,0.48291 0.126,0.13997 0.2309,0.27994 0.3149,0.41992 L 2.7207,0.750488 2.15381,0.183594 1.20898,1.08643 c 0.08399,0.09798 0.13298,0.20996 0.14698,0.33593 0.01399,0.12598 0.02099,0.25896 0.02099,0.39893 0,0.08398 -0.007,0.18546 -0.02099,0.30444 -0.014,0.11898 -0.06299,0.23446 -0.14698,0.34644 L 2.15381,3.33301 2.7207,2.80811 M 3.05664,-1.22314 9.08252,-6.51416 C 8.99854,-6.65413 8.87956,-6.76611 8.72559,-6.8501 8.6696,-7.00407 8.58561,-7.13704 8.47363,-7.24902 l -5.41699,6.02588 m -5.98389,0 -5.31201,-6.02588 c -0.18196,0.08398 -0.30094,0.21696 -0.35693,0.39892 -0.13998,0.08399 -0.25195,0.19597 -0.33594,0.33594 l 6.00488,5.29102 m 0,6.02587 -6.00488,5.27007 c 0.08399,0.1539 0.19596,0.2729 0.33594,0.3569 0.08398,0.196 0.20296,0.3219 0.35693,0.3779 l 5.31201,-6.00487 m 5.98389,0 5.41699,6.00487 c 0.08399,-0.084 0.16797,-0.2099 0.25196,-0.3779 0.15397,-0.084 0.27295,-0.203 0.35693,-0.3569 L 3.05664,4.80273 m 2.05762,6.36187 1.00781,5.9208 c -0.37793,0.084 -0.81185,0.189 -1.30176,0.315 -0.40592,0.084 -0.88533,0.161 -1.43823,0.2309 -0.5529,0.07 -1.16528,0.119 -1.83716,0.147 v -3.3174 c 0,-0.3639 -0.13997,-0.6613 -0.41992,-0.8923 -0.279948,-0.231 -0.650879,-0.3464 -1.112793,-0.3464 -0.405924,0 -0.745361,0.1154 -1.018307,0.3464 -0.27295,0.231 -0.40943,0.5284 -0.40943,0.8923 v 3.3174 c -0.68587,-0.028 -1.30875,-0.077 -1.86865,-0.147 -0.5599,-0.0699 -1.04281,-0.1469 -1.44873,-0.2309 -0.47591,-0.126 -0.88883,-0.231 -1.23877,-0.315 l 0.86084,-5.8369 4.51416,-5.03903 c 0.083985,-0.08398 0.125977,-0.19596 0.125977,-0.33593 0,-0.13998 -0.041992,-0.25896 -0.125977,-0.35694 L -0.764648,5.30664 -0.428711,4.9707 c 0.111979,0.05599 0.286947,0.08399 0.5249024,0.08399 0.1959636,0 0.3499346,-0.028 0.4619136,-0.08399 L 0.915039,5.30664 0.74707,5.5166 C 0.649089,5.61458 0.600098,5.73356 0.600098,5.87354 c 0,0.13997 0.048991,0.25195 0.146972,0.33593 L 5.11426,11.1646 M 0.012207,9.98877 c 0.601888,0 0.902832,-0.30094 0.902832,-0.90283 0,-0.22396 -0.080485,-0.41643 -0.241455,-0.5774 C 0.512614,8.34757 0.292155,8.26709 0.012207,8.26709 c -0.237956,0 -0.426921,0.08048 -0.566895,0.24145 -0.139973,0.16097 -0.20996,0.35344 -0.20996,0.5774 0,0.29394 0.069987,0.5179 0.20996,0.67187 0.139974,0.15397 0.328939,0.23096 0.566895,0.23096"
         fill-rule="evenodd"
         vector-effect="none" />
    </g>
    <g
       id="g16"
       font-style="normal"
       font-weight="400"
       font-size="7.8px"
       font-family="'MS Shell Dlg 2'"
       stroke="none"
       fill-opacity="1"
       fill="#ef4b65" />
  </g>
</svg>

<?xml version="1.0" encoding="UTF-8" standalone="no"?>
<svg width="11.2889mm" height="11.2889mm"
 viewBox="0 0 32 32"
 xmlns="http://www.w3.org/2000/svg" xmlns:xlink="http://www.w3.org/1999/xlink"  version="1.2" baseProfile="tiny">
<title>Qt SVG Document</title>
<desc>Generated with Qt</desc>
<defs>
</defs>
<g fill="none" stroke="black" stroke-width="1" fill-rule="evenodd" stroke-linecap="square" stroke-linejoin="bevel" >

<g fill="#ef4b65" fill-opacity="1" stroke="none" transform="matrix(1,0,0,1,0,0)"
font-family="MS Shell Dlg 2" font-size="7.8" font-weight="400" font-style="normal" 
>
<path vector-effect="non-scaling-stroke" fill-rule="evenodd" d="M37.2598,16 C37.2598,27.7415 27.7415,37.2598 16,37.2598 C4.25851,37.2598 -5.25984,27.7415 -5.25984,16 C-5.25984,4.25851 4.25851,-5.25984 16,-5.25984 C27.7415,-5.25984 37.2598,4.25851 37.2598,16 "/>
</g>

<g fill="#ffffff" fill-opacity="0.94902" stroke="none" transform="matrix(1,0,0,1,16,13.1654)"
font-family="MS Shell Dlg 2" font-size="7.8" font-weight="400" font-style="normal" 
>
<path vector-effect="none" fill-rule="evenodd" d="M2.7207,2.80811 L10.7202,9.90479 C10.6362,10.0588 10.5313,10.2057 10.4053,10.3457 C10.3213,10.4857 10.2163,10.6431 10.0903,10.8181 C9.96436,10.9931 9.81738,11.1646 9.64941,11.3325 C9.43945,11.5285 9.25749,11.693 9.10352,11.8259 C8.94954,11.9589 8.79557,12.0674 8.6416,12.1514 C8.50163,12.2633 8.34766,12.3473 8.17969,12.4033 L1.08301,4.4458 L1.6499,3.8999 L0.74707,2.89209 C0.649089,2.99007 0.544108,3.04606 0.432129,3.06006 C0.32015,3.07406 0.208171,3.08105 0.0961914,3.08105 C-0.0437826,3.08105 -0.159261,3.07406 -0.250244,3.06006 C-0.341227,3.04606 -0.456706,2.99007 -0.59668,2.89209 L-1.49951,3.8999 L-0.974609,4.4458 L-8.0293,12.4033 C-8.21126,12.3473 -8.37223,12.2633 -8.51221,12.1514 C-8.65218,12.0674 -8.80965,11.9589 -8.98462,11.8259 C-9.15959,11.693 -9.33105,11.5285 -9.49902,11.3325 C-9.80697,10.9546 -10.0659,10.6257 -10.2759,10.3457 C-10.3879,10.2057 -10.4858,10.0588 -10.5698,9.90479 L-2.57031,2.80811 L-2.06641,3.33301 L-1.05859,2.47217 C-1.18457,2.19222 -1.24756,1.97526 -1.24756,1.82129 C-1.24756,1.56934 -1.18457,1.32438 -1.05859,1.08643 L-2.06641,0.183594 L-2.57031,0.750488 L-10.5698,-6.34619 C-10.4858,-6.48617 -10.3879,-6.62614 -10.2759,-6.76611 C-10.0659,-7.06006 -9.80697,-7.389 -9.49902,-7.75293 C-9.33105,-7.9349 -9.15959,-8.09587 -8.98462,-8.23584 C-8.80965,-8.37581 -8.65218,-8.48779 -8.51221,-8.57178 C-8.37223,-8.69775 -8.21126,-8.78874 -8.0293,-8.84473 L-0.974609,-0.887207 L-1.49951,-0.320313 L-0.59668,0.666504 C-0.456706,0.58252 -0.341227,0.533529 -0.250244,0.519531 C-0.159261,0.505534 -0.0437826,0.498535 0.0961914,0.498535 C0.208171,0.498535 0.32015,0.505534 0.432129,0.519531 C0.544108,0.533529 0.649089,0.58252 0.74707,0.666504 L1.6499,-0.320313 L1.08301,-0.887207 L8.17969,-8.84473 C8.34766,-8.78874 8.50163,-8.69775 8.6416,-8.57178 C8.79557,-8.48779 8.94954,-8.37581 9.10352,-8.23584 C9.25749,-8.09587 9.43945,-7.9349 9.64941,-7.75293 C9.81738,-7.58496 9.96436,-7.41699 10.0903,-7.24902 C10.2163,-7.08105 10.3213,-6.92008 10.4053,-6.76611 C10.5313,-6.62614 10.6362,-6.48617 10.7202,-6.34619 L2.7207,0.750488 L2.15381,0.183594 L1.20898,1.08643 C1.29297,1.18441 1.34196,1.29639 1.35596,1.42236 C1.36995,1.54834 1.37695,1.68132 1.37695,1.82129 C1.37695,1.90527 1.36995,2.00675 1.35596,2.12573 C1.34196,2.24471 1.29297,2.36019 1.20898,2.47217 L2.15381,3.33301 L2.7207,2.80811 M3.05664,-1.22314 L9.08252,-6.51416 C8.99854,-6.65413 8.87956,-6.76611 8.72559,-6.8501 C8.6696,-7.00407 8.58561,-7.13704 8.47363,-7.24902 L3.05664,-1.22314 M-2.92725,-1.22314 L-8.23926,-7.24902 C-8.42122,-7.16504 -8.5402,-7.03206 -8.59619,-6.8501 C-8.73617,-6.76611 -8.84814,-6.65413 -8.93213,-6.51416 L-2.92725,-1.22314 M-2.92725,4.80273 L-8.93213,10.0728 C-8.84814,10.2267 -8.73617,10.3457 -8.59619,10.4297 C-8.51221,10.6257 -8.39323,10.7516 -8.23926,10.8076 L-2.92725,4.80273 M3.05664,4.80273 L8.47363,10.8076 C8.55762,10.7236 8.6416,10.5977 8.72559,10.4297 C8.87956,10.3457 8.99854,10.2267 9.08252,10.0728 L3.05664,4.80273 M5.11426,11.1646 L6.12207,17.0854 C5.74414,17.1694 5.31022,17.2744 4.82031,17.4004 C4.41439,17.4844 3.93498,17.5614 3.38208,17.6313 C2.82918,17.7013 2.2168,17.7503 1.54492,17.7783 L1.54492,14.4609 C1.54492,14.097 1.40495,13.7996 1.125,13.5686 C0.845052,13.3376 0.474121,13.2222 0.012207,13.2222 C-0.393717,13.2222 -0.733154,13.3376 -1.0061,13.5686 C-1.27905,13.7996 -1.41553,14.097 -1.41553,14.4609 L-1.41553,17.7783 C-2.1014,17.7503 -2.72428,17.7013 -3.28418,17.6313 C-3.84408,17.5614 -4.32699,17.4844 -4.73291,17.4004 C-5.20882,17.2744 -5.62174,17.1694 -5.97168,17.0854 L-5.11084,11.2485 L-0.59668,6.20947 C-0.512695,6.12549 -0.470703,6.01351 -0.470703,5.87354 C-0.470703,5.73356 -0.512695,5.61458 -0.59668,5.5166 L-0.764648,5.30664 L-0.428711,4.9707 C-0.316732,5.02669 -0.141764,5.05469 0.0961914,5.05469 C0.292155,5.05469 0.446126,5.02669 0.558105,4.9707 L0.915039,5.30664 L0.74707,5.5166 C0.649089,5.61458 0.600098,5.73356 0.600098,5.87354 C0.600098,6.01351 0.649089,6.12549 0.74707,6.20947 L5.11426,11.1646 M0.012207,9.98877 C0.614095,9.98877 0.915039,9.68783 0.915039,9.08594 C0.915039,8.86198 0.834554,8.66951 0.673584,8.50854 C0.512614,8.34757 0.292155,8.26709 0.012207,8.26709 C-0.225749,8.26709 -0.414714,8.34757 -0.554688,8.50854 C-0.694661,8.66951 -0.764648,8.86198 -0.764648,9.08594 C-0.764648,9.37988 -0.694661,9.60384 -0.554688,9.75781 C-0.414714,9.91178 -0.225749,9.98877 0.012207,9.98877 "/>
</g>

<g fill="#ef4b65" fill-opacity="1" stroke="none" transform="matrix(1,0,0,1,0,0)"
font-family="MS Shell Dlg 2" font-size="7.8" font-weight="400" font-style="normal" 
>
</g>
</g>
</svg>
